X:135
T:Air,An. (p)1657.PLFD.136
T:Gavotte,A. (p)1657.PLFD.136
M:3/2
L:1/4
Q:1/2=70
S:Playford, Dancing Master,Supplement to 3rd Ed.,1657
O:England
H:1657.
Z:Chris Partington.
K:Bb
g/a/bag ^fg|dg g>^fg2:|[M:4/4]|:B>cdd|(d/e/)fc2|
f>f g(e/d/)|c>BB>B|cdAB|A>GG2:|
